!!!SOCIAL_FUNCTION:	dream songs
!!!PDT:	1913
!!!OTL: No_150_An_Overhanging_Cloud.krn
!!!REG: Great_Lakes
!!!LANG: Non-Tone
!!!LING_GROUP: Algonquin
**kern	**kern
*staff2	*staff1
=1-	=1-
*clefF4	*clefF4
*k[f#c#g#d#a#]	*k[f#c#g#d#a#]
*M2/4	*M2/4
12GG#^/	8f#\L
12r	.
.	8f#\J
12GG#/	.
12GG#^/	8f#\L
12r	.
.	8f#\J
12GG#/	.
=2	=2
2r	2f#\
=3||	=3||
*M3/4	*M3/4
2.r	8d#\L
.	8d#\J
.	8.d#\L
.	16c#\Jk
.	4B\
=4	=4
2.r	8d#\L
.	[8f#\J
.	8f#\L]
.	8d#\J
.	8.d#\L
.	16c#\Jk
=5	=5
2.r	4B\
.	4.B\
.	8B\
=6	=6
2.r	2.B\
=7||	=7||
*M2/4	*M2/4
2r	12d#\L
.	12f#\
.	12f#\J
.	12f#\L
.	12f#\
.	12d#\J
=8	=8
2r	2B\
=9||	=9||
*M3/4	*M3/4
2.r	8.B\L
.	16F#\Jk
.	12D#\L
.	12F#\
.	12F#\J
.	12F#\L
.	12G#\
.	12G#\J
=10||	=10||
*M2/4	*M2/4
2r	2F#\
=11	=11
2r	(8.F#\L
.	16D#\Jk)
.	4BB/
=12||	=12||
*M3/4	*M3/4
.	D#q/
2.r	8D#\L
.	[8F#\J
.	8F#\L]
.	8D#\J
.	8.D#/L
.	16C#/Jk
=13	=13
2.r	4BB/
.	4.BB/
.	8BB/
=14	=14
2.r	2.BB/
==	==
*-	*-
